X:238
T:Dawgmatism
C:David Grisman
N:
L:1/8
Q:1/4=108
M:4/4
K:G
z2 B,D EG {^A}=AG |: "Am7"{G}(3AAA (3AAA (3AAA (3AAA | "D7"z3C/^D/ FA2c/^d/ | 
"Gmaj7"d3B/A/ Bz3 | "C7"z^A, zE G^A {A}=AG | "F#m7"{G}(3AAA (3AAA (3AAA (3AAA | 
"B7"z3/2^A/ =AG A_B {B}AG |1 "Em"zE3 [d'fAD][c'2e2G2C2][b^dFB,] | z2 EF GA {^A}=AG :|2 z"Em7"E z6 | 
[e'6a6d6G6] (3ega | {a}(3"Cmaj7"bbb (3bbb (3bbb g/a/g/e/ | (3"Bm7"aaa (3aaa (3aaa a2 | 
{g}(3"Bbmaj7"aaa (3aaa (3aaa g/a/g/e/ | (3"Am7"ggg (3ggg (3ggg g2 | (3"G#maj7"ggg (3ggg f/g/f z/^d/=d | 
"Am7"z4 "D7"c/d/c z/A3/2 | [B2D2G,2] c2 dd {d}e2 | "G7"[=f2A2D2] g2 {g}a2 g2 | 
{a}"Cmaj7"b6 g/a/g/e/ | (3"Cdim7"aaa (3aaa (3aaa a2 | (3"Bm7"aaa (3aaa (3aaa f/a/f/d/ | 
"E7"^g8 | "Am7"g4 (3g2f2 e2 | "D7"^d4 z=d cd | "G"{^A}Bd {A}B{A}B z4 | "B7"z[B^DA,] z6 | 
 

